X: 1
T: Far Away
T: Wild Asparagus
C: Pete Jung
R: Waltz
M: 3/4
L: 1/8
K: Bmin
Z: ABC transcription by Verge Roller
r: 32
|: FA | "Bm" B2 BA Bd | "A" cA F2 FA | "Bm" B2 BA Bd | "A" e4 dc |
"Bm" B2 BA Bd | "A" cA F2 de | "Bm" fe dc "D" BA | [1 "Bm" B4 :| [2 "Bm" B2 Bc de |]
|: "D" f2 fe fa | "A" ec A2 de | "D" f2  fe fa | "A" e4 de |
"Bm" fdB "A" ecA | "G" dBF "A" cAE | "Bm" F2 B2 "D" A2 | [1 "Bm" B2 Bc de :| [2 "Bm" B4 |]
